icons/evolvere-blue-folders-flat-vivid-dark-fallback/apps/64/brasero.svg

<?xml version="1.0" encoding="UTF-8" standalone="no"?>
<!-- Created with Inkscape (http://www.inkscape.org/) -->

<svg
   xmlns:dc="http://purl.org/dc/elements/1.1/"
   xmlns:cc="http://creativecommons.org/ns#"
   xmlns:rdf="http://www.w3.org/1999/02/22-rdf-syntax-ns#"
   xmlns:svg="http://www.w3.org/2000/svg"
   xmlns="http://www.w3.org/2000/svg"
   xmlns:sodipodi="http://sodipodi.sourceforge.net/DTD/sodipodi-0.dtd"
   xmlns:inkscape="http://www.inkscape.org/namespaces/inkscape"
   width="64"
   height="64"
   id="svg13094"
   version="1.1"
   inkscape:version="0.91+devel r"
   sodipodi:docname="brasero.svg">
  <sodipodi:namedview
     id="base"
     pagecolor="#ffffff"
     bordercolor="#666666"
     borderopacity="1.0"
     inkscape:pageopacity="0"
     inkscape:pageshadow="2"
     inkscape:zoom="11.313709"
     inkscape:cx="32.042713"
     inkscape:cy="29.524808"
     inkscape:document-units="px"
     inkscape:current-layer="svg13094"
     showgrid="true"
     inkscape:snap-bbox="true"
     inkscape:bbox-paths="true"
     inkscape:bbox-nodes="true"
     inkscape:snap-bbox-edge-midpoints="true"
     inkscape:snap-bbox-midpoints="true"
     inkscape:object-paths="true"
     inkscape:snap-intersection-paths="true"
     inkscape:object-nodes="true"
     inkscape:snap-smooth-nodes="true"
     inkscape:snap-midpoints="true"
     inkscape:snap-object-midpoints="true"
     inkscape:snap-center="true"
     showguides="true"
     inkscape:guide-bbox="true"
     inkscape:window-width="1920"
     inkscape:window-height="1023"
     inkscape:window-x="-10"
     inkscape:window-y="35"
     inkscape:window-maximized="1"
     inkscape:snap-global="true"
     fit-margin-top="0"
     fit-margin-left="0"
     fit-margin-right="0"
     fit-margin-bottom="0"
     showborder="true"
     inkscape:showpageshadow="false"
     inkscape:snap-page="true">
    <inkscape:grid
       type="xygrid"
       id="grid3075"
       empspacing="5"
       visible="true"
       enabled="true"
       snapvisiblegridlinesonly="true"
       originx="1.6362304e-08px"
       originy="18px" />
  </sodipodi:namedview>
  <defs
     id="defs13096" />
  <metadata
     id="metadata13099">
    <rdf:RDF>
      <cc:Work
         rdf:about="">
        <dc:format>image/svg+xml</dc:format>
        <dc:type
           rdf:resource="http://purl.org/dc/dcmitype/StillImage" />
        <dc:title></dc:title>
      </cc:Work>
    </rdf:RDF>
  </metadata>
  <path
     id="path6538"
     d="m 0,4 0,30 0,28 2,2 30,0 30,0 2,-2 L 64,34 64,4 32,4 0,4 z"
     style="color:#000000;fill:#ce4429;fill-opacity:1;fill-rule:nonzero;stroke:none;stroke-width:2.28571415;marker:none;visibility:visible;display:inline;overflow:visible;enable-background:accumulate"
     inkscape:connector-curvature="0" />
  <path
     style="color:#000000;fill:#ff8065;fill-opacity:1;fill-rule:nonzero;stroke:none;marker:none;visibility:visible;display:inline;overflow:visible;enable-background:accumulate"
     d="M 2 0 L 0 1 L 0 4 L 19.5625 4 L 39.125 4 L 64 4 L 64 1 L 62 0 L 39.125 0 L 19.5625 0 L 2 0 z "
     id="path6688" />
  <path
     d="M 64,6 62,4 64,3 z"
     id="path3028"
     style="fill:#e66247;fill-opacity:1"
     inkscape:connector-curvature="0" />
  <g
     id="g3043"
     inkscape:export-filename="folder.png"
     inkscape:export-xdpi="90"
     inkscape:export-ydpi="90"
     transform="translate(-0.62500009,0.082283)" />
  <g
     id="scalable"
     transform="matrix(1.0385892,0,0,1.0385892,1214.7222,1878.8121)"
     inkscape:label="#g3701"
     style="fill:#ffffff" />
  <path
     style="fill:#ff947f;fill-opacity:1;fill-rule:nonzero"
     d="M 0,3 0,6 2,4 Z"
     id="path4298"
     inkscape:connector-curvature="0"
     sodipodi:nodetypes="cccc" />
  <path
     style="fill:#000000;fill-opacity:0.03225806;fill-rule:nonzero"
     d="M 2 0 L 0 1 L 32 1 L 64 1 L 62 0 L 32 0 L 2 0 z "
     id="path4444" />
  <path
     inkscape:connector-curvature="0"
     id="path4222"
     d="M 32.03125,6.03125 C 16.584532,6.03125 4.0625,18.553279 4.0625,34 c 0,15.446721 12.522032,27.96875 27.96875,27.96875 C 47.477968,61.96875 60,49.446721 60,34 60,18.553279 47.477968,6.03125 32.03125,6.03125 Z"
     style="opacity:1;fill:#4a5462;fill-opacity:1;fill-rule:nonzero;stroke:none;stroke-width:1;stroke-linecap:butt;stroke-linejoin:miter;stroke-miterlimit:4;stroke-dasharray:none;stroke-dashoffset:0;stroke-opacity:1"
     sodipodi:nodetypes="sssss" />
  <g
     id="g4151">
    <path
       inkscape:connector-curvature="0"
       id="path4409"
       d="m 32.03125,25 c -4.970564,0 -9,4.029435 -9,9 0,4.970565 4.029436,9 9,9 4.970564,0 9,-4.029435 9,-9 0,-4.970565 -4.029436,-9 -9,-9 z m 0,6.03125 C 33.679377,31.03125 35,32.351873 35,34 c 0,1.648127 -1.320623,2.96875 -2.96875,2.96875 -1.648127,0 -3,-1.320623 -3,-2.96875 0,-1.648127 1.351873,-2.96875 3,-2.96875 z"
       style="fill:#adb4be;fill-opacity:1;fill-rule:nonzero;stroke:none" />
    <path
       inkscape:connector-curvature="0"
       id="path4443"
       d="M 32.03125,6.03125 C 16.584532,6.03125 4.0625,18.553279 4.0625,34 c 0,15.446721 12.522032,27.96875 27.96875,27.96875 C 47.477968,61.96875 60,49.446721 60,34 60,18.553279 47.477968,6.03125 32.03125,6.03125 Z m 0,18.742947 c 5.121784,0 9.225803,4.104019 9.225803,9.225803 0,5.121784 -4.104019,9.225803 -9.225803,9.225803 -5.121784,0 -9.322917,-4.104019 -9.322917,-9.225803 0,-5.121784 4.201133,-9.225803 9.322917,-9.225803 z"
       style="opacity:1;fill:#cad0da;fill-opacity:1;fill-rule:nonzero;stroke:none;stroke-width:1;stroke-linecap:butt;stroke-linejoin:miter;stroke-miterlimit:4;stroke-dasharray:none;stroke-dashoffset:0;stroke-opacity:1" />
    <path
       style="color:#000000;display:inline;overflow:visible;visibility:visible;opacity:1;fill:#ffffff;fill-opacity:0.52415024;fill-rule:nonzero;stroke:none;stroke-width:1.24910724;stroke-linecap:butt;stroke-linejoin:miter;stroke-miterlimit:4;stroke-dasharray:none;stroke-dashoffset:0;stroke-opacity:1;marker:none;enable-background:accumulate"
       d="M 12.249781,14.212059 C 6.7829261,19.678913 4.0516651,26.845865 4.0572854,34.011049 l 18.6968976,0 c 0.02031,-2.369403 0.94068,-4.738616 2.748326,-6.546262 1.80517,-1.80517 4.153029,-2.709543 6.502067,-2.71518 l 0,-18.7300437 c -7.150464,0.00561 -14.299171,2.736871 -19.754795,8.1924957 z m 19.754795,29.049383 0,18.696898 c 7.165184,0.0056 14.332136,-2.725641 19.79899,-8.192496 5.455625,-5.455624 8.186885,-12.604331 8.192496,-19.754795 l -18.730044,0 c -0.0056,2.349038 -0.91001,4.696897 -2.71518,6.502067 -1.807646,1.807646 -4.176859,2.728016 -6.546262,2.748326 z"
       id="path4441"
       inkscape:connector-curvature="0" />
    <path
       inkscape:connector-curvature="0"
       id="path5170-6"
       d="m 32.015625,23 c -6.06921,0 -11,4.93079 -11,11 0,6.06921 4.93079,11 11,11 6.06921,0 11,-4.93079 11,-11 0,-6.06921 -4.93079,-11 -11,-11 z m 0,1 c 5.52877,0 10,4.47123 10,10 0,5.52877 -4.47123,10 -10,10 -5.52877,0 -10,-4.47123 -10,-10 0,-5.52877 4.47123,-10 10,-10 z"
       style="color:#000000;font-style:normal;font-variant:normal;font-weight:normal;font-stretch:normal;font-size:medium;line-height:normal;font-family:sans-serif;text-indent:0;text-align:start;text-decoration:none;text-decoration-line:none;text-decoration-style:solid;text-decoration-color:#000000;letter-spacing:normal;word-spacing:normal;text-transform:none;direction:ltr;block-progression:tb;writing-mode:lr-tb;baseline-shift:baseline;text-anchor:start;white-space:normal;shape-padding:0;clip-rule:nonzero;display:inline;overflow:visible;visibility:visible;opacity:1;isolation:auto;mix-blend-mode:normal;color-interpolation:sRGB;color-interpolation-filters:linearRGB;solid-color:#000000;solid-opacity:1;fill:#4a5462;fill-opacity:0.38282648;fill-rule:nonzero;stroke:none;stroke-width:1;stroke-linecap:butt;stroke-linejoin:miter;stroke-miterlimit:4;stroke-dasharray:none;stroke-dashoffset:0;stroke-opacity:1;color-rendering:auto;image-rendering:auto;shape-rendering:auto;text-rendering:auto;enable-background:accumulate" />
  </g>
  <path
     style="color:#000000;display:inline;overflow:visible;visibility:visible;opacity:1;fill:#ff921b;fill-opacity:1;fill-rule:nonzero;stroke:none;stroke-width:2;marker:none;enable-background:accumulate"
     d="M 32 15 C 34.605628 15.06602 37.111351 15.688679 39.353516 16.708984 C 41.595682 17.729289 43.574054 19.14777 45.171875 20.828125 C 46.959566 22.705659 48.268446 24.900577 49.111328 27.166016 C 49.95421 29.431455 50.330858 31.767421 50.277344 34 C 50.218154 36.612901 49.577521 39.078244 48.582031 41.234375 C 47.586541 43.390507 46.236575 45.23857 44.707031 46.707031 C 42.727049 48.615227 40.453876 49.896593 38.25 50.6875 C 36.046124 51.478407 33.907112 51.780161 32 51.763672 C 30.755912 51.760372 29.610026 51.6107 28.574219 51.388672 C 25.930305 50.821943 23.538954 49.673595 21.578125 48.318359 C 20.598223 47.641096 19.734015 46.913889 18.96875 46.177734 A 4.5640526 4.5640526 0 0 0 20.384766 42.875 A 4.5640526 4.5640526 0 0 0 15.822266 38.310547 A 4.5640526 4.5640526 0 0 0 11.257812 42.875 A 4.5640526 4.5640526 0 0 0 15.822266 47.439453 A 4.5640526 4.5640526 0 0 0 17.167969 47.232422 C 18.015062 48.242333 19.015431 49.249155 20.222656 50.175781 C 22.33973 51.800779 25.022819 53.167838 28.052734 53.818359 C 29.239766 54.073214 30.560532 54.239659 32 54.236328 C 34.186063 54.219838 36.608712 53.823195 39.066406 52.863281 C 41.524101 51.903367 44.019882 50.376121 46.162109 48.162109 C 47.81102 46.452116 49.220694 44.352835 50.212891 41.947266 C 51.205086 39.541697 51.781846 36.829519 51.722656 34 C 51.669146 31.582333 51.146594 29.105778 50.142578 26.751953 C 49.138563 24.398128 47.651461 22.167086 45.697266 20.302734 C 43.948346 18.636348 41.839647 17.280933 39.503906 16.355469 C 37.168166 15.430005 34.605628 14.933979 32 15 z "
     id="path4403" />
</svg>

<svg xmlns="http://www.w3.org/2000/svg" viewBox="0 0 64 64"><g color="#000"><path d="m0 4v30 28l2 2h30 30l2-2v-28-30h-32-32" fill="#ce4429"/><path d="m2 0l-2 1v3h19.563 19.563 24.875v-3l-2-1h-22.875-19.563-17.563" fill="#ff8065"/></g><path d="m64 6l-2-2 2-1z" fill="#e66247"/><path d="m0 3v3l2-2" fill="#ff947f"/><path d="m2 0l-2 1h32 32l-2-1h-30-30" fill-opacity=".032"/><path d="m32.03 6.03c-15.447 0-27.969 12.522-27.969 27.969 0 15.447 12.522 27.969 27.969 27.969 15.447 0 27.969-12.522 27.969-27.969 0-15.447-12.522-27.969-27.969-27.969" fill="#4a5462"/><path d="m32.03 25c-4.971 0-9 4.03-9 9 0 4.971 4.03 9 9 9 4.971 0 9-4.03 9-9 0-4.971-4.03-9-9-9m0 6.03c1.648 0 2.969 1.321 2.969 2.969 0 1.648-1.321 2.969-2.969 2.969-1.648 0-3-1.321-3-2.969 0-1.648 1.352-2.969 3-2.969" fill="#adb4be"/><path d="m32.03 6.03c-15.447 0-27.969 12.522-27.969 27.969 0 15.447 12.522 27.969 27.969 27.969 15.447 0 27.969-12.522 27.969-27.969 0-15.447-12.522-27.969-27.969-27.969m0 18.743c5.122 0 9.226 4.104 9.226 9.226 0 5.122-4.104 9.226-9.226 9.226-5.122 0-9.323-4.104-9.323-9.226 0-5.122 4.201-9.226 9.323-9.226z" fill="#cad0da"/><g color="#000"><path d="m12.25 14.212c-5.467 5.467-8.198 12.634-8.192 19.799h18.697c.02-2.369.941-4.739 2.748-6.546 1.805-1.805 4.153-2.71 6.502-2.715v-18.73c-7.15.006-14.299 2.737-19.755 8.192m19.755 29.05v18.697c7.165.006 14.332-2.726 19.799-8.192 5.456-5.456 8.187-12.604 8.192-19.755h-18.73c-.006 2.349-.91 4.697-2.715 6.502-1.808 1.808-4.177 2.728-6.546 2.748" fill-opacity=".524" fill="#fff"/><path d="m32.02 23c-6.069 0-11 4.931-11 11 0 6.069 4.931 11 11 11 6.069 0 11-4.931 11-11 0-6.069-4.931-11-11-11m0 1c5.529 0 10 4.471 10 10 0 5.529-4.471 10-10 10-5.529 0-10-4.471-10-10 0-5.529 4.471-10 10-10" shape-rendering="auto" mix-blend-mode="normal" color-interpolation-filters="linearRGB" isolation="auto" white-space="normal" fill="#4a5462" solid-opacity="1" image-rendering="auto" fill-opacity=".383" solid-color="#000000" color-rendering="auto" shape-padding="0" color-interpolation="sRGB"/><path d="m32 15c2.606.066 5.111.689 7.354 1.709 2.242 1.02 4.221 2.439 5.818 4.119 1.788 1.878 3.097 4.072 3.939 6.338.843 2.265 1.22 4.601 1.166 6.834-.059 2.613-.7 5.078-1.695 7.234-.995 2.156-2.345 4-3.875 5.473-1.98 1.908-4.253 3.19-6.457 3.98-2.204.791-4.343 1.093-6.25 1.076-1.244-.003-2.39-.153-3.426-.375-2.644-.567-5.04-1.715-6.996-3.07-.98-.677-1.844-1.404-2.609-2.141a4.564053 4.564053 0 0 0 1.416016 -3.302734 4.564053 4.564053 0 0 0 -4.5625 -4.564453 4.564053 4.564053 0 0 0 -4.564454 4.564453 4.564053 4.564053 0 0 0 4.564454 4.564453 4.564053 4.564053 0 0 0 1.345703 -.207031c.847 1.01 1.847 2.02 3.055 2.943 2.117 1.625 4.8 2.992 7.83 3.643 1.187.255 2.508.421 3.947.418 2.186-.016 4.609-.413 7.07-1.373 2.458-.96 4.953-2.487 7.096-4.701 1.649-1.71 3.059-3.809 4.051-6.215.992-2.406 1.569-5.118 1.51-7.947-.054-2.418-.576-4.894-1.58-7.248-1-2.354-2.491-4.585-4.445-6.449-1.749-1.666-3.858-3.02-6.193-3.947-2.336-.925-4.898-1.421-7.504-1.355" fill="#ff921b"/></g></svg>
